korla/status/symbolic/arch-error-symbolic.svg

<svg style="clip-rule:evenodd;fill-rule:evenodd;stroke-linejoin:round;stroke-miterlimit:2" version="1.1" viewBox="0 0 16 16" xmlns="http://www.w3.org/2000/svg">
 <path d="M8,1C6.175,2.725 3.298,4 2.357,4.25C2.357,10.846 4.548,13.456 8,15C11.571,13.714 13.643,10.866 13.643,4.25C12.702,4 9.825,2.725 8,1ZM8,1.699C6.302,3.058 4.175,4.11 2.87,4.62C3.025,10.449 4.941,13.017 8.042,14.536C11.219,13.226 12.989,10.457 13.131,4.621C11.826,4.111 9.698,3.059 8,1.699Z" style="fill:rgb(66,133,244)"/>
 <path d="m5 5h1l2 2 2-2h1v1l-2 2 2 2v1h-1l-2-2-2 2h-1v-1l2-2-2-2v-1z" style="fill:rgb(66,133,244)"/>
</svg>

<svg xmlns="http://www.w3.org/2000/svg" width="16" height="16" version="1.1">
 <path style="fill:#4285f4" class="warning" d="M 8 1 C 6.175 2.725 3 4 2 4.25 C 2 9 4.25 14.25 8 15 C 11.75 14.25 14 9 14 4.25 C 13 4 9.825 2.725 8 1 z M 5 5 L 6 5 L 8 7 L 10 5 L 11 5 L 11 6 L 9 8 L 11 10 L 11 11 L 10 11 L 8 9 L 6 11 L 5 11 L 5 10 L 7 8 L 5 6 L 5 5 z"/>
</svg>
